X:154
T:Mickey Dalton's No.3
C:Mickey Dalton
S:Shannon Heaton
L:1/8
R:Polka
M:2/4
K:D
GA/B/ ed | B2 BA | GA/B/ ed | A2 AG |
FD FA | f3 e |[1 dc/d/ ed | B3 A :|[2 dc/d/ ef | g3 d |]
|: g2 fe | dB Bd | g2 fe | d2 dA |
eA eA | f3 e c/d/ ed | B3 d :|[2 dc/d/ ef | gd BA |]

